X: 22543
T: Lady Hope Of Pinkie
R: strathspey
M: 4/4
K: Gminor
K: Bb
A/|B<B b2 a<f g2|f>d e>c d>B A<F|B<B b2 a<f g2|f>d e>c d<B B,3/2:|
F/|D/E/F B>D E>G B2|A/B/c c>c d>e f2|D/E/F B>D E>G c>B|A/B/c F>A B2 B,>F|
D/E/F B>D E>G B2|A/B/c e/d/c d>e f2|(3DBf (3fBf (3EBg (3gBg|(3Fca (3aca b<B B2||

